wp-content/plugins/wordpress-seo/packages/js/images/yoast-connect-google-site-kit-success.svg

<svg viewBox="0 0 252 60" fill="none" xmlns="http://www.w3.org/2000/svg">
<path fill-rule="evenodd" clip-rule="evenodd" d="M36.9619 29.6426C36.9619 26.2228 38.7926 23.1523 43.3669 23.1523C47.7696 23.1523 49.7423 25.9528 49.753 29.851C49.7613 33.0517 47.9685 36.2667 43.3669 36.2667C38.7654 36.2667 36.9619 33.195 36.9619 29.6426ZM45.3941 26.9033C44.2206 25.2633 40.706 25.2633 40.5947 29.8352C40.6397 32.4167 41.8393 33.4492 43.3668 33.4658C46.6836 33.5037 46.4598 28.3977 45.3941 26.9033Z" fill="url(#paint0_linear_5038_4649)"/>
<path d="M80.4752 33.0943V26.4631H82.8435V23.5892H80.4752V20.1138H76.8162V23.5892H74.9595V26.4655H76.8162V32.7237C76.8162 36.2761 79.2934 38.3886 81.908 38.8255L82.9998 35.877C81.4758 35.684 80.4894 34.5449 80.4752 33.0943Z" fill="url(#paint1_linear_5038_4649)"/>
<path fill-rule="evenodd" clip-rule="evenodd" d="M62.0075 27.0617V32.0434C62.0075 32.7435 62.2037 33.7126 62.4332 34.8457C62.5216 35.2822 62.6149 35.7431 62.7038 36.2222H59.1798L58.5688 34.7503C54.4515 37.7438 50.5166 35.7237 50.5166 32.5822C50.5166 28.4507 54.5261 27.9498 58.2929 27.9498C58.2929 27.8697 58.2946 27.7864 58.2963 27.7013C58.3058 27.2356 58.3163 26.7159 58.056 26.3654C58.0557 26.3631 58.0557 26.3607 58.056 26.3583C58.0453 26.344 58.0338 26.331 58.0222 26.3178C58.0185 26.3136 58.0148 26.3093 58.011 26.305C57.4095 25.6301 55.6842 25.2772 52.8008 26.6461L51.5184 24.0706C55.9459 22.5253 61.6617 22.5158 61.9791 26.5419C61.9972 26.7146 62.0067 26.8881 62.0075 27.0617ZM55.4869 30.8711C52.7693 32.2033 55.423 35.256 58.3218 32.0126V30.5869C57.3733 30.5869 56.2874 30.5988 55.4869 30.8711Z" fill="url(#paint2_linear_5038_4649)"/>
<path d="M67.6361 26.7937C67.6361 25.5669 69.6018 24.9926 72.7006 26.4076L73.7723 23.8025C69.6018 22.5402 63.906 22.4313 63.8681 26.7937C63.8516 28.8849 65.192 30.0098 67.1233 30.7274C68.4602 31.2247 70.3916 31.4817 70.3857 32.5474C70.3785 33.9388 67.385 34.1519 64.6603 32.2798L63.5591 35.1028C67.2749 36.9524 74.1867 37.0045 74.15 32.3686C74.1193 27.786 67.6361 28.5711 67.6361 26.7937Z" fill="url(#paint3_linear_5038_4649)"/>
<path d="M35.415 16.875L30.1101 31.6092L27.5701 23.653H23.7915L28.0213 34.5187C28.3824 35.4438 28.3824 36.471 28.0213 37.3961C27.5476 38.6087 26.7613 39.646 24.8442 39.9041V43.125C28.5778 43.125 30.5968 40.8301 32.3978 35.7987L39.4577 16.875H35.415Z" fill="url(#paint4_linear_5038_4649)"/>
<circle cx="126" cy="30" r="30" fill="#DCFCE7"/>
<path d="M117.045 31.2495L122.045 36.2495L134.545 23.7495" stroke="#16A34A" stroke-width="3" stroke-linecap="round" stroke-linejoin="round"/>
<path d="M238.632 23.5645H240.899V23.6391L235.833 29.4826L241.238 37.1137V37.1883H239.087L234.65 30.8313L232.556 33.2496V37.1891H230.802V23.5645H232.556V30.5917H232.63L238.632 23.5645ZM244.524 24.649C244.524 24.9878 244.4 25.2857 244.16 25.526C243.92 25.7663 243.631 25.8902 243.283 25.8902C242.943 25.8902 242.645 25.7663 242.406 25.526C242.288 25.4125 242.195 25.2761 242.133 25.1253C242.07 24.9744 242.039 24.8123 242.041 24.649C242.041 24.3012 242.165 24.0116 242.406 23.7712C242.645 23.5309 242.936 23.407 243.283 23.407C243.622 23.407 243.92 23.5309 244.16 23.7712C244.408 24.0198 244.524 24.3086 244.524 24.649ZM244.169 27.8682V37.1965H242.414V27.8682H244.169ZM249.773 37.3458C249.011 37.3458 248.381 37.1144 247.877 36.642C247.372 36.1703 247.115 35.5164 247.107 34.6805V29.4654H245.468V27.8682H247.107V25.0117H248.861V27.8682H251.146V29.4654H248.862V34.1095C248.862 34.7297 248.986 35.1522 249.226 35.3754C249.466 35.5993 249.739 35.7068 250.045 35.7068C250.186 35.7068 250.318 35.6903 250.459 35.6567C250.6 35.6239 250.716 35.5821 250.832 35.5328L251.386 37.0973C250.915 37.263 250.385 37.3458 249.773 37.3458ZM194.284 36.4681C193.315 35.7642 192.653 34.7708 192.289 33.4959L194.44 32.6182C194.656 33.4213 195.037 34.0662 195.591 34.5797C196.138 35.085 196.8 35.341 197.569 35.341C198.29 35.341 198.893 35.1589 199.398 34.7872C199.903 34.414 200.152 33.9012 200.152 33.2556C200.152 32.66 199.928 32.1711 199.49 31.7822C199.051 31.3934 198.281 31.0045 197.18 30.6149L196.27 30.2924C195.293 29.9536 194.474 29.4654 193.811 28.828C193.149 28.1906 192.819 27.3547 192.819 26.3127C192.819 25.5917 193.017 24.9296 193.406 24.3176C193.795 23.7048 194.341 23.2249 195.045 22.8599C195.74 22.5046 196.527 22.3225 197.412 22.3225C198.687 22.3225 199.705 22.6285 200.458 23.2495C201.219 23.8705 201.724 24.5572 201.98 25.3357L199.929 26.2037C199.779 25.7402 199.499 25.3349 199.076 24.9871C198.655 24.6311 198.116 24.4572 197.454 24.4572C196.792 24.4572 196.23 24.6229 195.774 24.9617C195.319 25.3013 195.095 25.732 195.095 26.2619C195.095 26.7665 195.302 27.1725 195.707 27.5032C196.113 27.8256 196.75 28.1406 197.62 28.4384L198.531 28.7444C199.78 29.1751 200.74 29.7461 201.427 30.4417C202.114 31.1366 202.454 32.0718 202.454 33.2392C202.454 34.1908 202.213 34.9857 201.725 35.6224C201.243 36.2568 200.6 36.7512 199.863 37.0547C199.126 37.3629 198.336 37.5205 197.537 37.5182C196.328 37.5182 195.244 37.1704 194.284 36.4673L194.284 36.4681ZM204.208 24.8968C204.066 24.7582 203.953 24.592 203.878 24.4085C203.802 24.2249 203.765 24.0279 203.769 23.8295C203.769 23.407 203.918 23.051 204.208 22.7614C204.346 22.6193 204.512 22.5071 204.696 22.4316C204.88 22.3561 205.077 22.319 205.275 22.3225C205.697 22.3225 206.054 22.4718 206.342 22.7614C206.633 23.051 206.781 23.407 206.781 23.8287C206.781 24.2512 206.632 24.6072 206.343 24.896C206.205 25.0382 206.038 25.1506 205.855 25.2262C205.671 25.3018 205.474 25.339 205.276 25.3357C204.853 25.3267 204.497 25.1864 204.208 24.8968ZM204.158 26.8337H206.392V37.1958H204.158V26.8337ZM211.251 37.1383C210.845 36.9891 210.515 36.7905 210.258 36.5502C209.679 35.971 209.38 35.1768 209.38 34.1752V28.8034H207.568V26.8329H209.38V23.9123H211.615V26.8426H214.132V28.8124H211.615V33.687C211.615 34.2416 211.723 34.6394 211.938 34.8626C212.145 35.1358 212.493 35.2679 212.998 35.2679C213.229 35.2679 213.428 35.235 213.61 35.1768C213.784 35.1193 213.974 35.0201 214.181 34.879V37.0562C213.734 37.263 213.196 37.3622 212.559 37.3622C212.113 37.3662 211.67 37.2904 211.251 37.1383ZM217.384 36.8077C216.584 36.3432 215.93 35.6636 215.497 34.8462C215.042 34.0102 214.818 33.075 214.818 32.0323C214.818 31.0381 215.042 30.1282 215.48 29.2759C215.919 28.4309 216.532 27.7532 217.318 27.2561C218.104 26.759 218.998 26.5023 220 26.5023C221.043 26.5023 221.945 26.7344 222.714 27.1897C223.465 27.6386 224.071 28.2934 224.461 29.0766C224.858 29.8797 225.057 30.7739 225.057 31.7837C225.057 31.9741 225.04 32.2136 224.999 32.495H217.053C217.136 33.4556 217.476 34.2005 218.079 34.7215C218.659 35.2337 219.409 35.5113 220.182 35.5C220.819 35.5 221.374 35.3589 221.837 35.0611C222.31 34.7689 222.698 34.3579 222.963 33.8691L224.85 34.7633C224.362 35.6157 223.724 36.286 222.938 36.7741C222.152 37.263 221.208 37.5026 220.115 37.5026C219.097 37.519 218.188 37.2876 217.384 36.8077ZM222.781 30.7985C222.75 30.415 222.631 30.0437 222.433 29.714C222.226 29.358 221.92 29.0519 221.506 28.8124C221.093 28.572 220.588 28.4481 219.991 28.4481C219.271 28.4481 218.667 28.6631 218.17 29.0848C217.674 29.5072 217.334 30.0864 217.144 30.7985H222.781Z" fill="#5F6368"/>
<g clip-path="url(#clip0_5038_4649)">
<path fill-rule="evenodd" clip-rule="evenodd" d="M170.119 26.5605L172.695 28.5307C172.544 28.9904 172.468 29.4711 172.468 29.9549C172.468 30.4529 172.548 30.9317 172.695 31.3791L170.119 33.3493C169.6 32.293 169.332 31.1316 169.334 29.9549C169.334 28.7341 169.617 27.5822 170.119 26.5605Z" fill="#FBBC05"/>
<path fill-rule="evenodd" clip-rule="evenodd" d="M172.696 28.5305L170.119 26.5603C170.751 25.2765 171.73 24.1959 172.946 23.4416C174.162 22.6873 175.565 22.2897 176.996 22.294C178.946 22.294 180.687 23.0252 182.045 24.2092L179.816 26.4377C179.05 25.8109 178.075 25.4279 176.996 25.4279C174.986 25.4279 173.291 26.725 172.696 28.5305Z" fill="#EA4335"/>
<path fill-rule="evenodd" clip-rule="evenodd" d="M170.118 33.3467L172.694 31.3723C172.991 32.2781 173.567 33.0666 174.34 33.625C175.113 34.1834 176.042 34.4831 176.995 34.4812C179.119 34.4812 180.721 33.4017 181.104 31.5213H176.995V28.5615H184.134C184.238 29.0142 184.308 29.5017 184.308 29.9544C184.308 34.8294 180.826 37.6151 176.995 37.6151C175.564 37.6193 174.161 37.2214 172.945 36.4667C171.729 35.7121 170.75 34.631 170.118 33.3467Z" fill="#34A853"/>
<path fill-rule="evenodd" clip-rule="evenodd" d="M181.988 35.7069L179.542 33.8136C180.342 33.3087 180.899 32.5305 181.104 31.5213H176.995V28.5615H184.133C184.238 29.0142 184.308 29.5017 184.308 29.9544C184.308 32.4511 183.394 34.4 181.988 35.7069Z" fill="#4285F4"/>
</g>
<defs>
<linearGradient id="paint0_linear_5038_4649" x1="49.753" y1="36.2667" x2="49.753" y2="23.1523" gradientUnits="userSpaceOnUse">
<stop stop-color="#570732"/>
<stop offset="0.04" stop-color="#610B39"/>
<stop offset="0.15" stop-color="#79164B"/>
<stop offset="0.29" stop-color="#8C1E59"/>
<stop offset="0.44" stop-color="#9A2463"/>
<stop offset="0.63" stop-color="#A22768"/>
<stop offset="1" stop-color="#A4286A"/>
</linearGradient>
<linearGradient id="paint1_linear_5038_4649" x1="82.9985" y1="38.8196" x2="82.9985" y2="20.1138" gradientUnits="userSpaceOnUse">
<stop stop-color="#570732"/>
<stop offset="0.04" stop-color="#610B39"/>
<stop offset="0.15" stop-color="#79164B"/>
<stop offset="0.29" stop-color="#8C1E59"/>
<stop offset="0.44" stop-color="#9A2463"/>
<stop offset="0.63" stop-color="#A22768"/>
<stop offset="1" stop-color="#A4286A"/>
</linearGradient>
<linearGradient id="paint2_linear_5038_4649" x1="62.7008" y1="36.2222" x2="62.7008" y2="23.1126" gradientUnits="userSpaceOnUse">
<stop stop-color="#570732"/>
<stop offset="0.04" stop-color="#610B39"/>
<stop offset="0.15" stop-color="#79164B"/>
<stop offset="0.29" stop-color="#8C1E59"/>
<stop offset="0.44" stop-color="#9A2463"/>
<stop offset="0.63" stop-color="#A22768"/>
<stop offset="1" stop-color="#A4286A"/>
</linearGradient>
<linearGradient id="paint3_linear_5038_4649" x1="74.1487" y1="36.2751" x2="74.1487" y2="23.0459" gradientUnits="userSpaceOnUse">
<stop stop-color="#570732"/>
<stop offset="0.04" stop-color="#610B39"/>
<stop offset="0.15" stop-color="#79164B"/>
<stop offset="0.29" stop-color="#8C1E59"/>
<stop offset="0.44" stop-color="#9A2463"/>
<stop offset="0.63" stop-color="#A22768"/>
<stop offset="1" stop-color="#A4286A"/>
</linearGradient>
<linearGradient id="paint4_linear_5038_4649" x1="25.4342" y1="16.1693" x2="25.4342" y2="36.9142" gradientUnits="userSpaceOnUse">
<stop stop-color="#77B227"/>
<stop offset="0.47" stop-color="#75B027"/>
<stop offset="0.64" stop-color="#6EAB27"/>
<stop offset="0.75" stop-color="#63A027"/>
<stop offset="0.85" stop-color="#529228"/>
<stop offset="0.93" stop-color="#3C8028"/>
<stop offset="1" stop-color="#246B29"/>
</linearGradient>
<clipPath id="clip0_5038_4649">
<rect width="14.9732" height="15.909" fill="white" transform="translate(169.334 22)"/>
</clipPath>
</defs>
</svg>

<svg viewBox="0 0 252 60" fill="none" xmlns="http://www.w3.org/2000/svg" role="img" aria-hidden="true" focusable="false"><path fill-rule="evenodd" clip-rule="evenodd" d="M36.962 29.643c0-3.42 1.83-6.49 6.405-6.49 4.403 0 6.375 2.8 6.386 6.698.008 3.2-1.785 6.416-6.386 6.416-4.602 0-6.405-3.072-6.405-6.624zm8.432-2.74c-1.173-1.64-4.688-1.64-4.8 2.932.046 2.582 1.245 3.614 2.773 3.63 3.317.039 3.093-5.067 2.027-6.562z" fill="url(#paint0_linear_5038_4649)"/><path d="M80.475 33.094v-6.63h2.369v-2.875h-2.369v-3.475h-3.659v3.475H74.96v2.877h1.856v6.258c0 3.552 2.477 5.665 5.092 6.102L83 35.877c-1.524-.193-2.51-1.332-2.525-2.783z" fill="url(#paint1_linear_5038_4649)"/><path fill-rule="evenodd" clip-rule="evenodd" d="M62.008 27.062v4.981c0 .7.196 1.67.425 2.803.089.436.182.897.27 1.376H59.18l-.611-1.472c-4.117 2.994-8.052.974-8.052-2.168 0-4.131 4.01-4.632 7.776-4.632l.003-.249c.01-.465.02-.985-.24-1.336v-.007c-.01-.014-.022-.027-.034-.04l-.011-.013c-.602-.675-2.327-1.028-5.21.341l-1.283-2.575c4.428-1.546 10.144-1.555 10.461 2.47.018.174.028.347.029.52zm-6.521 3.81c-2.718 1.331-.064 4.384 2.835 1.14v-1.425c-.949 0-2.035.012-2.835.284z" fill="url(#paint2_linear_5038_4649)"/><path d="M67.636 26.794c0-1.227 1.966-1.801 5.065-.386l1.071-2.606c-4.17-1.262-9.866-1.37-9.904 2.992-.016 2.09 1.324 3.216 3.255 3.933 1.337.498 3.269.755 3.263 1.82-.007 1.392-3.001 1.605-5.726-.267l-1.1 2.823c3.715 1.85 10.627 1.901 10.59-2.734-.03-4.583-6.514-3.798-6.514-5.575z" fill="url(#paint3_linear_5038_4649)"/><path d="M35.415 16.875L30.11 31.609l-2.54-7.956h-3.779l4.23 10.866a3.957 3.957 0 0 1 0 2.877c-.473 1.213-1.26 2.25-3.177 2.508v3.221c3.734 0 5.753-2.295 7.554-7.326l7.06-18.924h-4.043z" fill="url(#paint4_linear_5038_4649)"/><circle cx="126" cy="30" r="30" fill="#DCFCE7"/><path d="M117.045 31.25l5 5 12.5-12.5" stroke="#16A34A" stroke-width="3" stroke-linecap="round" stroke-linejoin="round"/><path d="M238.632 23.564h2.267v.075l-5.066 5.844 5.405 7.63v.075h-2.151l-4.437-6.357-2.094 2.419v3.94h-1.754V23.564h1.754v7.027h.074l6.002-7.027zm5.892 1.085c0 .339-.124.637-.364.877a1.19 1.19 0 0 1-.877.364c-.34 0-.638-.124-.877-.364a1.198 1.198 0 0 1-.365-.877c0-.348.124-.637.365-.878.239-.24.53-.364.877-.364.339 0 .637.124.877.364.248.249.364.538.364.878zm-.355 3.22v9.328h-1.755v-9.329h1.755zm5.604 9.477c-.762 0-1.392-.232-1.896-.704-.505-.472-.762-1.126-.77-1.962v-5.215h-1.639v-1.597h1.639v-2.856h1.754v2.856h2.285v1.597h-2.284v4.644c0 .62.124 1.043.364 1.266.24.224.513.332.819.332.141 0 .273-.017.414-.05a2.19 2.19 0 0 0 .373-.124l.554 1.564c-.471.166-1.001.249-1.613.249zm-55.489-.878c-.969-.704-1.631-1.697-1.995-2.972l2.151-.878c.216.803.597 1.448 1.151 1.962.547.505 1.209.761 1.978.761.721 0 1.324-.182 1.829-.554.505-.373.754-.886.754-1.531 0-.596-.224-1.085-.662-1.474-.439-.389-1.209-.777-2.31-1.167l-.91-.323c-.977-.338-1.796-.827-2.459-1.464-.662-.637-.992-1.473-.992-2.515 0-.721.198-1.383.587-1.995.389-.613.935-1.093 1.639-1.458.695-.355 1.482-.537 2.367-.537 1.275 0 2.293.305 3.046.927.761.62 1.266 1.307 1.522 2.086l-2.051.868c-.15-.464-.43-.87-.853-1.217-.421-.356-.96-.53-1.622-.53-.662 0-1.224.166-1.68.505-.455.34-.679.77-.679 1.3 0 .505.207.91.612 1.241.406.323 1.043.638 1.913.935l.911.306c1.249.431 2.209 1.002 2.896 1.698.687.695 1.027 1.63 1.027 2.797 0 .952-.241 1.747-.729 2.383a4.482 4.482 0 0 1-1.862 1.433 5.981 5.981 0 0 1-2.326.463c-1.209 0-2.293-.348-3.253-1.05zm9.924-11.571a1.45 1.45 0 0 1-.439-1.067c0-.423.149-.779.439-1.069a1.444 1.444 0 0 1 1.067-.438c.422 0 .779.149 1.067.438.291.29.439.646.439 1.068 0 .422-.149.778-.438 1.067a1.455 1.455 0 0 1-1.067.44c-.423-.01-.779-.15-1.068-.44zm-.05 1.937h2.234v10.362h-2.234V26.834zm7.093 10.304a2.898 2.898 0 0 1-.993-.588c-.579-.579-.878-1.373-.878-2.375v-5.372h-1.812v-1.97h1.812v-2.92h2.235v2.93h2.517v1.97h-2.517v4.874c0 .555.108.952.323 1.176.207.273.555.405 1.06.405.231 0 .43-.033.612-.091.174-.058.364-.157.571-.298v2.177c-.447.207-.985.306-1.622.306a3.735 3.735 0 0 1-1.308-.224zm6.133-.33a4.946 4.946 0 0 1-1.887-1.962c-.455-.836-.679-1.771-.679-2.814 0-.994.224-1.904.662-2.756a5.157 5.157 0 0 1 1.838-2.02c.786-.497 1.68-.754 2.682-.754 1.043 0 1.945.232 2.714.688a4.572 4.572 0 0 1 1.747 1.887c.397.803.596 1.697.596 2.707 0 .19-.017.43-.058.711h-7.946c.083.96.423 1.706 1.026 2.227.58.512 1.33.79 2.103.778.637 0 1.192-.141 1.655-.439a3.185 3.185 0 0 0 1.126-1.192l1.887.894a5.577 5.577 0 0 1-1.912 2.011c-.786.489-1.73.729-2.823.729-1.018.016-1.927-.215-2.731-.695zm5.397-6.01a2.497 2.497 0 0 0-.348-1.084 2.486 2.486 0 0 0-.927-.902c-.413-.24-.918-.364-1.515-.364-.72 0-1.324.215-1.821.637-.496.422-.836 1.001-1.026 1.713h5.637z" fill="#5F6368"/><g clip-path="url(#clip0_5038_4649)" fill-rule="evenodd" clip-rule="evenodd"><path d="M170.119 26.56l2.576 1.97a4.563 4.563 0 0 0 0 2.85l-2.576 1.97a7.667 7.667 0 0 1-.785-3.395c0-1.22.283-2.373.785-3.394z" fill="#FBBC05"/><path d="M172.696 28.53l-2.577-1.97a7.64 7.64 0 0 1 6.877-4.266c1.95 0 3.691.731 5.049 1.915l-2.229 2.229a4.428 4.428 0 0 0-2.82-1.01 4.518 4.518 0 0 0-4.3 3.102z" fill="#EA4335"/><path d="M170.118 33.347l2.576-1.975a4.514 4.514 0 0 0 4.301 3.11c2.124 0 3.726-1.08 4.109-2.96h-4.109v-2.96h7.139c.104.452.174.94.174 1.392 0 4.875-3.482 7.661-7.313 7.661a7.637 7.637 0 0 1-6.877-4.268z" fill="#34A853"/><path d="M181.988 35.707l-2.446-1.893c.8-.505 1.357-1.283 1.562-2.293h-4.109v-2.96h7.138c.105.453.175.94.175 1.393 0 2.497-.914 4.446-2.32 5.753z" fill="#4285F4"/></g><defs><linearGradient id="paint0_linear_5038_4649" x1="49.753" y1="36.267" x2="49.753" y2="23.152" gradientUnits="userSpaceOnUse"><stop stop-color="#570732"/><stop offset=".04" stop-color="#610B39"/><stop offset=".15" stop-color="#79164B"/><stop offset=".29" stop-color="#8C1E59"/><stop offset=".44" stop-color="#9A2463"/><stop offset=".63" stop-color="#A22768"/><stop offset="1" stop-color="#A4286A"/></linearGradient><linearGradient id="paint1_linear_5038_4649" x1="82.999" y1="38.82" x2="82.999" y2="20.114" gradientUnits="userSpaceOnUse"><stop stop-color="#570732"/><stop offset=".04" stop-color="#610B39"/><stop offset=".15" stop-color="#79164B"/><stop offset=".29" stop-color="#8C1E59"/><stop offset=".44" stop-color="#9A2463"/><stop offset=".63" stop-color="#A22768"/><stop offset="1" stop-color="#A4286A"/></linearGradient><linearGradient id="paint2_linear_5038_4649" x1="62.701" y1="36.222" x2="62.701" y2="23.113" gradientUnits="userSpaceOnUse"><stop stop-color="#570732"/><stop offset=".04" stop-color="#610B39"/><stop offset=".15" stop-color="#79164B"/><stop offset=".29" stop-color="#8C1E59"/><stop offset=".44" stop-color="#9A2463"/><stop offset=".63" stop-color="#A22768"/><stop offset="1" stop-color="#A4286A"/></linearGradient><linearGradient id="paint3_linear_5038_4649" x1="74.149" y1="36.275" x2="74.149" y2="23.046" gradientUnits="userSpaceOnUse"><stop stop-color="#570732"/><stop offset=".04" stop-color="#610B39"/><stop offset=".15" stop-color="#79164B"/><stop offset=".29" stop-color="#8C1E59"/><stop offset=".44" stop-color="#9A2463"/><stop offset=".63" stop-color="#A22768"/><stop offset="1" stop-color="#A4286A"/></linearGradient><linearGradient id="paint4_linear_5038_4649" x1="25.434" y1="16.169" x2="25.434" y2="36.914" gradientUnits="userSpaceOnUse"><stop stop-color="#77B227"/><stop offset=".47" stop-color="#75B027"/><stop offset=".64" stop-color="#6EAB27"/><stop offset=".75" stop-color="#63A027"/><stop offset=".85" stop-color="#529228"/><stop offset=".93" stop-color="#3C8028"/><stop offset="1" stop-color="#246B29"/></linearGradient><clipPath id="clip0_5038_4649"><path fill="#fff" transform="translate(169.334 22)" d="M0 0h14.973v15.909H0z"/></clipPath></defs></svg>
